X:1
T:Title
%%score [ ( 1 2 ) ( 3 4 ) ]
L:1/8
Q:1/4=240
M:4/4
K:C
V:1 treble nm="Midi_74"
V:2 treble 
V:3 bass nm="Midi_74"
V:4 bass 
V:1
"^E. J. Hopkins\n(1818-1901)" G8 | A4 G4 | F8 || G8 | E4 G4 | A4 c4 | (c4 B4) || c8 | B4 ^G4 | %9
 A8 || A8 | G4 c4 | c4 B4 | c8 |] %14
V:2
 E8 | E4 E4 | D8 || D8 | C4 D4 | C4 D4 | D8 || C8 | D4 D4 | C8 || F8 | F4 E4 | D4 (E2 F2) | E8 |] %14
V:3
 C8 | A,4 A,4 | A,8 || G,8 | G,4 G,4 | G,4 ^F,4 | G,8 || G,8 | ^G,4 B,4 | A,8 || A,8 | D4 G,4 | %12
 G,4 G,4 | G,8 |] %14
V:4
 C,8 | C,4 C,4 | D,8 || B,,8 | C,4 B,,4 | A,,4 A,,4 | G,,8 || E,8 | E,4 E,4 | F,8 || D,8 | %11
 B,,4 C,4 | G,,4 G,,4 | C,8 |] %14

